X:1
T:Title
%%score ( 1 2 ) ( 3 4 )
L:1/8
Q:1/4=83
M:6/8
K:Bb
V:1 treble nm="Grand Piano, Soprano"
V:2 treble 
V:3 bass nm="Choir Pad, From the Cyber Hymnal™"
V:4 bass 
V:1
 [DF]/[DF]/[DB][CA] [DB][Fd][Ec] | [DB]/[DB]/[Ec][EB] [EG] [DF]2 | %2
w: By~J.~C.~Lenderman * * * * * *||
 [DF]/[DF]/[DB][EA] [DB][Fd][Fc] | z f2- f2- f/ z/ | [EF]/[EF]/[DB][CA] [DB][Fd][Ec] | %5
w: |||
 [DB]/[DB]/[Ec][EB] [EG] [DF]2 | [Ge]/[Ge]/[Fd][Ec] [DB][Fc][EG] | [EA] [DB]2- [DB]2- [DB]/ z/ | %8
w: |||
 [DF]/[DF]/ [Fd]2- [Fd]2 [=E_d] | [Fd] [DB]2- [DB]2- [DB]/ z/ | [DB]/[DB]/ [Fc]2- [Fc]2 [Fd] | %11
w: |||
 [Af] [Bf]2- [Bf] [Fd]2 | [DF]/[DF]/[DB][CA] [DB][Fd][Ec] | [DB]/[DB]/[Ec][EB] [EG] [DF]2 | %14
w: |||
 [Ge]/[Ge]/[Fd][Ec] [DB][Fc][EG] | [EA] [DB]2- [DB]3- | [DB]3 z3 |] %17
w: |||
V:2
 x6 | x6 | x6 | [=EB] F2- F A2 | x6 | x6 | x6 | x6 | x6 | x6 | x6 | x6 | x6 | x6 | x6 | x6 | x6 |] %17
V:3
 [B,,B,]/[B,,B,]/[B,,B,][B,,F,] [B,,B,][B,,B,][B,,F,] | %1
 [B,,B,]/[B,,B,]/[E,G,][E,G,] [E,B,] [B,,B,]2 | [B,,B,]/[B,,B,]/[B,,B,][B,,F,] [B,,B,]B,[A,C] | %3
 [G,C] A,2- A, C2 | F,/F,/[B,,B,][B,,F,] [B,,B,][B,,B,][B,,F,] | %5
 [B,,B,]/[B,,B,]/[E,G,][E,G,] [E,B,] [B,,B,]2 | [E,B,]/[E,B,]/[F,B,][F,A,] [F,B,][F,A,][F,A,] | %7
 F, [B,,F,]2- [B,,F,]2- [B,,F,]/ z/ | [B,,B,]/[B,,B,]/[B,,B,][B,,B,] [B,,B,][B,,B,][B,,B,] | %9
 [B,,B,][B,,B,][D,B,] F, [B,,F,]2 | [B,,B,]/[B,,B,]/[F,A,][F,A,] [F,A,][F,A,][F,B,] | %11
 [F,C] [B,D]2- [B,D] [B,,B,]2 | [B,,B,]/[B,,B,]/[B,,B,][B,,F,] [B,,B,][B,,B,][B,,F,] | %13
 [B,,B,]/[B,,B,]/[E,G,][E,G,] [E,B,] [B,,B,]2 | [E,B,]/[E,B,]/[F,B,][F,A,] [F,B,][F,A,][F,A,] | %15
 F, [B,,F,]2- [B,,F,]3- | [B,,F,]3 z3 |] %17
V:4
 x6 | x6 | x6 | z F,2- F,2- F,/ z/ | x6 | x6 | x6 | x6 | x6 | x6 | x6 | x6 | x6 | x6 | x6 | x6 | %16
 x6 |] %17

